icons/svg/tourist_colored/information_terminal.svg

<?xml version="1.0" encoding="UTF-8" standalone="no"?>
<!-- Created with Inkscape (http://www.inkscape.org/) -->

<svg
   xmlns:dc="http://purl.org/dc/elements/1.1/"
   xmlns:cc="http://creativecommons.org/ns#"
   xmlns:rdf="http://www.w3.org/1999/02/22-rdf-syntax-ns#"
   xmlns:svg="http://www.w3.org/2000/svg"
   xmlns="http://www.w3.org/2000/svg"
   xmlns:sodipodi="http://sodipodi.sourceforge.net/DTD/sodipodi-0.dtd"
   xmlns:inkscape="http://www.inkscape.org/namespaces/inkscape"
   version="1.0"
   width="580"
   height="580"
   id="svg2"
   sodipodi:version="0.32"
   inkscape:version="0.91 r"
   sodipodi:docname="information_terminal.svg"
   inkscape:output_extension="org.inkscape.output.svg.inkscape">
  <metadata
     id="metadata10">
    <rdf:RDF>
      <cc:Work
         rdf:about="">
        <dc:format>image/svg+xml</dc:format>
        <dc:type
           rdf:resource="http://purl.org/dc/dcmitype/StillImage" />
        <cc:license
           rdf:resource="http://web.resource.org/cc/PublicDomain" />
        <dc:language>en</dc:language>
        <dc:title />
      </cc:Work>
    </rdf:RDF>
  </metadata>
  <sodipodi:namedview
     inkscape:window-height="1004"
     inkscape:window-width="1920"
     inkscape:pageshadow="2"
     inkscape:pageopacity="0.0"
     guidetolerance="10.0"
     gridtolerance="10.0"
     objecttolerance="10.0"
     borderopacity="1.0"
     bordercolor="#666666"
     pagecolor="#ffffff"
     id="base"
     showgrid="false"
     inkscape:zoom="0.7071068"
     inkscape:cx="621.54899"
     inkscape:cy="338.23522"
     inkscape:window-x="1680"
     inkscape:window-y="0"
     inkscape:current-layer="svg2"
     inkscape:window-maximized="1" />
  <defs
     id="defs4">
    <inkscape:perspective
       sodipodi:type="inkscape:persp3d"
       inkscape:vp_x="0 : 290 : 1"
       inkscape:vp_y="0 : 1000 : 0"
       inkscape:vp_z="580 : 290 : 1"
       inkscape:persp3d-origin="290 : 193.33333 : 1"
       id="perspective12" />
    <style
       type="text/css"
       id="style6">
   
    .fil0 {fill:#EF7900}
   
  </style>
    <inkscape:perspective
       id="perspective6807"
       inkscape:persp3d-origin="29.116032 : 19.410688 : 1"
       inkscape:vp_z="58.232063 : 29.116032 : 1"
       inkscape:vp_y="0 : 1000 : 0"
       inkscape:vp_x="0 : 29.116032 : 1"
       sodipodi:type="inkscape:persp3d" />
  </defs>
  <g
     id="g1327">
    <path
       d="M 66.275,1.768 C 24.94,1.768 1.704,23.139 1.704,66.804 L 1.704,516.927 C 1.704,557.771 22.598,579.156 63.896,579.156 L 515.92,579.156 C 557.227,579.156 578.149,558.84 578.149,516.927 L 578.149,66.804 C 578.149,24.203 557.227,1.768 514.627,1.768 C 514.624,1.768 66.133,1.625 66.275,1.768 z"
       style="fill:#111111;stroke:#eeeeee;stroke-width:3.40799999"
       id="path1329" />
  </g>
  <path
     style="font-style:normal;font-variant:normal;font-weight:bold;font-stretch:normal;font-size:48px;line-height:100%;font-family:Garamond;-inkscape-font-specification:'Garamond Bold';text-align:start;writing-mode:lr-tb;text-anchor:start;fill:#ffffff;fill-opacity:1;stroke:none;stroke-width:1px;stroke-linecap:butt;stroke-linejoin:miter;stroke-opacity:1"
     d="m 116.05184,95.335596 c 0,-12.717814 4.12154,-23.13963 12.36493,-31.265752 8.24325,-8.125068 18.84188,-12.187827 31.79575,-12.188279 13.89564,4.52e-4 25.43636,4.29881 34.62185,12.894925 9.18534,8.597018 13.77793,18.312338 13.77824,29.145962 -3.1e-4,8.008248 -1.82556,16.016048 -5.47605,24.023388 -3.65066,8.00825 -9.42109,14.42624 -17.31086,19.25413 -7.89022,4.82849 -15.95696,7.24265 -24.20005,7.24237 -11.30528,2.8e-4 -21.72708,-4.8279 -31.26575,-14.48473 -9.53881,-9.65608 -14.30806,-21.19665 -14.30806,-34.622014 l 0,0 z m -49.459911,421.469134 -0.70665,-22.96356 39.921251,-5.29924 c 5.88801,-1.6486 9.95077,-4.06276 12.18844,-7.24237 2.23735,-3.17945 3.3561,-10.30409 3.3561,-21.37376 l 0,-3.88609 c 0,-2.82614 0.17666,-7.94886 0.52998,-15.36789 0.35318,-7.41887 0.52985,-13.95475 0.52985,-19.6073 0,-4.47487 -0.35333,-13.07144 -1.05983,-25.78985 l 0.35334,-17.66419 -0.35334,-16.60451 0.70664,-57.58543 c -1.4e-4,-7.30099 -0.70664,-14.83774 -2.11978,-22.61025 -2.59082,-3.53262 -7.3013,-6.59435 -14.1314,-9.18533 -6.830261,-2.59053 -18.724141,-4.47472 -35.681681,-5.65256 l 0,-19.78397 c 24.25883,-1.41298 45.573671,-6.47662 63.944481,-15.19137 12.48267,-5.65227 26.0253,-15.66196 40.62792,-30.02912 l 23.67005,0 c 0.94195,29.20505 1.41299,67.1244 1.41314,113.75772 l -2.47295,144.14032 c -1.5e-4,9.89199 0.47089,18.84188 1.41298,26.84967 7.30116,2.59083 19.19504,5.18151 35.68184,7.77235 6.35905,0.94209 11.42269,2.11963 15.19122,3.53276 l -0.35317,19.43066 c -6.35936,0.2356 -11.06984,0.35331 -14.13141,0.35331 -3.53307,0 -8.95004,-0.23545 -16.25119,-0.70649 -24.02353,-1.1777 -56.17244,-1.76646 -96.44686,-1.76646 -11.54058,0 -22.727981,0.4121 -33.562061,1.23648 -10.83407,0.82436 -18.25309,1.23647 -22.25691,1.23647 l 0,0 z"
     id="flowRoot6828"
     inkscape:connector-curvature="0" />
  <path
     style="fill:#ffffff"
     inkscape:connector-curvature="0"
     id="path10"
     d="m 512.93823,114.82478 -216.94631,0 c -6.12116,0 -11.08236,4.96212 -11.08236,11.08235 l 0,376.87204 c 0,6.12023 4.9612,11.08235 11.08236,11.08235 l 216.94631,0 c 6.12207,0 11.08235,-4.96212 11.08235,-11.08235 l 0,-376.87204 c 0,-6.12023 -4.96028,-11.08235 -11.08235,-11.08235 z m -198.29194,29.50121 179.63757,0 0,111.79231 -179.63757,0 0,-111.79231 z m -9.72568,170.01715 9.61855,-45.04238 179.63757,0 9.83189,45.04238 -199.08801,0 z" />
</svg>

<svg width="580" height="580" viewBox="0 0 580 580" fill="none" xmlns="http://www.w3.org/2000/svg">
<g clip-path="url(#clip0)">
<path d="M66.2751 1.76799C24.9401 1.76799 1.7041 23.139 1.7041 66.804V516.927C1.7041 557.771 22.5981 579.156 63.8961 579.156H515.92C557.227 579.156 578.149 558.84 578.149 516.927V66.804C578.149 24.203 557.227 1.76799 514.627 1.76799C514.624 1.76799 66.1331 1.62499 66.2751 1.76799Z" fill="#111111" stroke="#EEEEEE" stroke-width="3.408"/>
<path d="M116.052 95.3356C116.052 82.6178 120.173 72.196 128.417 64.0698C136.66 55.9448 147.259 51.882 160.213 51.8816C174.108 51.882 185.649 56.1804 194.834 64.7765C204.02 73.3735 208.612 83.0888 208.613 93.9225C208.612 101.931 206.787 109.938 203.137 117.946C199.486 125.954 193.715 132.372 185.826 137.2C177.935 142.028 169.869 144.443 161.626 144.442C150.32 144.443 139.899 139.614 130.36 129.958C120.821 120.302 116.052 108.761 116.052 95.3356V95.3356ZM66.5919 516.805L65.8853 493.841L105.807 488.542C111.695 486.893 115.757 484.479 117.995 481.3C120.232 478.12 121.351 470.995 121.351 459.926V456.04C121.351 453.214 121.528 448.091 121.881 440.672C122.234 433.253 122.411 426.717 122.411 421.065C122.411 416.59 122.058 407.993 121.351 395.275L121.704 377.61L121.351 361.006L122.058 303.421C122.058 296.12 121.351 288.583 119.938 280.81C117.347 277.278 112.637 274.216 105.807 271.625C98.9762 269.034 87.0824 267.15 70.1248 265.972V246.188C94.3837 244.775 115.699 239.712 134.069 230.997C146.552 225.345 160.095 215.335 174.697 200.968H198.367C199.309 230.173 199.78 268.092 199.78 314.726L197.307 458.866C197.307 468.758 197.778 477.708 198.72 485.716C206.022 488.306 217.915 490.897 234.402 493.488C240.761 494.43 245.825 495.608 249.594 497.021L249.24 516.451C242.881 516.687 238.17 516.805 235.109 516.805C231.576 516.805 226.159 516.569 218.858 516.098C194.834 514.921 162.685 514.332 122.411 514.332C110.87 514.332 99.6829 514.744 88.8488 515.568C78.0147 516.393 70.5957 516.805 66.5919 516.805V516.805Z" fill="white"/>
<path d="M512.938 114.825H295.992C289.871 114.825 284.91 119.787 284.91 125.907V502.779C284.91 508.899 289.871 513.862 295.992 513.862H512.938C519.06 513.862 524.021 508.899 524.021 502.779V125.907C524.021 119.787 519.06 114.825 512.938 114.825V114.825ZM314.646 144.326H494.284V256.118H314.646V144.326V144.326ZM304.921 314.343L314.539 269.301H494.177L504.009 314.343H304.921V314.343Z" fill="white"/>
</g>
<defs>
<clipPath id="clip0">
<path d="M0 0H580V580H0V0Z" fill="white"/>
</clipPath>
</defs>
</svg>
